X:1
T: Das juengere Hildebrandslied
N: Q0001
O: Mitteleuropa, Deutschland
N: Anhaengsel, textiert mit "EYIA", in der siebten Zeile.
N: Kleinere Melodievarianten aus anderen Quellen abgedruckt.
R: Ballade, Kampf
M: none
L: 1/8
K: G
G2 | _B2B2c2c2 | d4d4z2
d4d2 | d2e2=f2d2d4z2
d2 | d2e2=f2d2 | _e4d4z2
d2c2_B2d2B2 | _B4z2
B2 | _BBB2c2c2 | d4d4z2
d2 | c2_B2B2B2 | G4=F4z2
d2 | d3c_B4z4
d2 | _e2d2d2_B2 | c4d4z2
c2 | _BBG2G2E2 | F4G4

